X:175
T: Rover's Return B
S: Reavy Collection: "Music of Corktown"
M: 6/8
L: 1/8
R: jig
Z: B.Black
K: G
g|fAA eAA|fAA efg|fAA ed^c|dBG G2g|
fAA eAA|fAA efg|faf gfe|dBG G2 :|
B/c/|ded BAB|dBA A2 B/c/|ded BAG|AFD D2B/c/|
ded BAB|dbA A2g|faf gfe|dBG G2 :|
